icon-svg/ubiquiti-cam-instant.svg

<svg width="24" height="24" viewBox="0 0 24 24" fill="none" xmlns="http://www.w3.org/2000/svg">
<path fill-rule="evenodd" clip-rule="evenodd" d="M17.5307 17.5551C17.6833 18.5478 16.1069 21.0059 15.181 21.3353H8.9948C7.61134 20.6013 6.50801 18.2162 6.459 17.2668V7.40229C6.54636 5.62732 8.86918 2.62683 12.0601 2.66509C14.9994 2.70034 17.3711 5.61906 17.5307 7.4023C17.5342 8.67764 17.5235 10.3552 17.5132 11.9801V11.9803C17.4961 14.675 17.4799 17.2249 17.5307 17.5551ZM8.75385 13.2671V8.59756C9.38842 7.06315 9.99394 6.41855 12.0221 6.08935C13.7713 6.33096 14.5544 6.88338 15.2462 8.59756V13.1148C14.7161 14.633 14.1088 15.4086 12.0221 15.7802C10.3372 15.5255 9.58817 15.0349 8.75385 13.2671ZM12 17.903C11.8844 17.903 11.7906 17.9968 11.7906 18.1124V19.7117C11.7906 19.8274 11.8844 19.9211 12 19.9211C12.1157 19.9211 12.2094 19.8274 12.2094 19.7117V18.1124C12.2094 17.9968 12.1157 17.903 12 17.903Z" fill="#44739E"/>
</svg>

<svg xmlns="http://www.w3.org/2000/svg" fill="none" viewBox="0 0 24 24"><path fill="#44739e" fill-rule="evenodd" d="M17.5307 17.5551c.1526.9927-1.4238 3.4508-2.3497 3.7802H8.9948c-1.3835-.734-2.4868-3.1191-2.5358-4.0685V7.4023c.0874-1.775 2.4102-4.7755 5.6011-4.7372 2.9393.0352 5.311 2.954 5.4706 4.7372.0035 1.2753-.0072 2.9529-.0175 4.5778v.0002c-.0171 2.6947-.0333 5.2446.0175 5.5748m-8.7768-4.288V8.5976c.6345-1.5344 1.24-2.179 3.2682-2.5083 1.7492.2417 2.5323.794 3.2241 2.5083v4.5172c-.5301 1.5182-1.1374 2.2938-3.2241 2.6654-1.6849-.2547-2.434-.7453-3.2682-2.5131M12 17.903a.2095.2095 0 0 0-.2094.2094v1.5993a.2094.2094 0 1 0 .4188 0v-1.5993A.2094.2094 0 0 0 12 17.903" clip-rule="evenodd"/></svg>
